X: 16408
T: Gypsy Princess
R: barndance
M: 4/4
K: Amajor
c2 c2 c2 c2|BcBA F2 E2|EFAB ceec|cBBc B2 AB|
c2 c2 c2 c2|BcBA F2 E2|EFAB ceec|1 B2 A2 A2 AB:|2 B2 A2 A2 (3ABc||
e2 e2 e2 e2|cdcB A2 (3cde|f3 f f2 fa|cdcB A2 (3ABc|
e4 e2 ee|cdcB A2 (3cde|a2 fe c2 Bd|1 c2 A2 A2 (3ABc:|2 c2 A2 A2 AB||

